X:1
T:123 - Bendito Cordeiro
T:Letra: Eden Reeder Latta (1839 - ?)
T:Trad.: Henry Maxwell Wright (1849-1931)
T:Música: Henry Southwick Perkins (1833-1914)
M:4/4
L:1/8
K:D 
V:1
"D"F2 F3/2=F/2 ^F2 F3/2G/2| A4 A2 A3/2F/2| "A"E2 E2 "D"F2 G3/2F/2| "A"E6z2| "D"F2 F3/2=F/2 ^F2 F3/2G/2| A4 A2 A3/2F/2| "Em"E2 E3/2E/2 "A"E2 F3/2E/2| "D"D6z2| "G"B2 B3/2B/2 B2 B3/2G/2| "D"F4 A2z2| "G"B2 B3/2B/2 "E7"Bd cB| ("A"A4 "A7"G2)z2 | "D"F2 F3/2=F/2 ^F2 F3/2G/2| A4 A2 A3/2F/2| "Em"E2 E3/2E/2 "A"E2 F3/2E/2| "D"D6z2 || A4- A3/F/ A3/d/| "A7"c4 c2z2 | G4- G3/E/ G3/B/| "D"A4 A2z2 | d2 d3/2d/2 "D/F#"d2 d3/2c/2| "G"B4 G2 B2| "D/A"A2 F3/2D/2 "A7"E2 F3/2E/2| "D"D4- D2z2 |]
w: 1.~Se-ja ben-di-too Cor-dei-ro Que na cruz por nós pa-de-ceu! Se-ja ben-di-too seu san-gue Que por nós, pe-ca-do-res, ver-teu! Eis nes-se san-gue la-va-dos, Com rou-pas que tão al-vas são,_ Os pe-ca-do-res re-mi-dos, Que pe-ran-te seu Deus ho-jees-tão! Al_vo mais quea ne-ve! Al_vo mais quea ne-ve! Sim, nes-se san-gue la-va-do, Mais al-vo quea ne-ve se-rei!_
w: 2.~Quão es-pi-nho-saa co-ro-a Que Je-sus por nós su-por-tou! Oh, quão pro-fun-das as cha-gas Que nos pro-vam o quan-toE-lea-mou! Eis, nes-sas cha-gas pu-re-za Pa-rao mais tor-pe pe-ca-dor,_ Pois que mais al-vos quea ne-ve O teu san-gue nos tor-na, Se-nhor! 
w: 3.~Se nós a Ti con-fes-sar-mos, E se-guir-mos na tu-a luz, Tu não so-men-te per-do-as, Pu-ri-fi-cas tam-bém, ó Je-sus, Sim, e de to-do pe-ca-do! Que ma-ra-vi-lha des-sea-mor!_ Pois que mais al-vos quea ne-ve O teu san-gue nos tor-na, Se-nhor!                   
W: 
W: 1. Seja bendito o Cordeiro
W: Que na cruz por nós padeceu!
W: Seja bendito o seu sangue
W: Que por nós, pecadores, verteu!
W: Eis nesse sangue lavados,
W: Com roupas que tão alvas são,
W: Os pecadores remidos,
W: Que perante seu Deus hoje estão!
W: 
W:    (Estribilho)
W:    Alvo mais que a neve!
W:    Alvo mais que a neve!   
W:    Sim, nesse sangue lavado,
W:    Mais alvo que a neve serei!
W: 
W: 
W: 2. Quão espinhosa a coroa
W: Que Jesus por nós suportou!
W: Oh, quão profundas as chagas
W: Que nos provam o quanto Ele amou!
W: Eis, nessas chagas pureza
W: Para o mais torpe pecador,
W: Pois que mais alvos que a neve
W: O teu sangue nos torna, Senhor!
W: 
W: 3. Se nós aTi confessarmos,
W: E seguirmos na tua luz,
W: Tu não somente perdoas,
W: Purificas também, ó Jesus,
W: Sim, e de todo pecado!
W: Que maravilha desse amor!
W: Pois que mais alvos que a neve
W: O teu sangue nos torna, Senhor!       
W: 				         





